X:1
T:Title
%%score 1 { 2 | 3 }
L:1/8
Q:1/4=100
M:6/8
K:A
V:1 treble nm="Grand Piano, Soprano"
V:2 bass nm="Choir Pad, Bass"
V:3 bass 
V:1
 [CE][CE][CE] [CE][CE][CE] | [DF][EG][FA] .[FA]3 | [EA][EA][EA] [EA][EG]A | [Ac]3 .[GB]3 | %4
w: By~Rigdon~McCoy~McIntosh,~1881 * * * * *||||
 [CE][CE][CE] [CE][CE][CE] | [DF][EG][FA] .[FA]3 | [EA][EG][EA] [GB][Ac][GB] | [GB]3 .A3 | %8
w: ||||
 [GB][GB][GB] [GB][FA][GB] | [Ac][Ae][Ae] .[Ae]3 | [Ee][Ed][Ec] [Ec][EB][EA] | [Ec]3 .[EB]3 | %12
w: ||||
 [CE][CE][CE] [CE][CE][CE] | [DF][EG][FA] .[FA]3 | [EA][EG][EA] [GB][Ac][GB] | [GB]3 A3- | A6 |] %17
w: |||||
V:2
 A,A,A, A,A,A, | A,A,A, .A,3 | CCC EDC | E3 .E3 | A,A,A, A,A,A, | A,A,A, .A,3 | CB,C EED | D3 .C3 | %8
 EEE EEE | ECC .C3 | C[K:bass]B,A, A,G,A, | A,3 .G,3 | A,A,A, A,A,A, | A,A,A, .A,3 | CB,C EED | %15
 D3 C3- | C6 |] %17
V:3
 A,,A,,A,, A,,A,,A,, | D,D,D, .D,3 | A,,A,,A,, C,B,,A,, | E,3 .E,3 | A,,A,,A,, A,,A,,A,, | %5
 D,D,D, .D,3 | E,E,E, E,E,E, | E,3 .A,,3 | E,E,E, E,E,E, | A,A,A, .A,3 | A, .A,2 A,,B,,C, | %11
 E,3 .E,3 | A,,A,,A,, A,,A,,A,, | D,D,D, .D,3 | E,E,E, E,E,E, | E,3 A,,3- | A,,6 |] %17

